X:52
T:Mazurka
C:Trad? Irish
O:Garry Shannon, Folkworks, Darlington, Oct 03.
M:6/4
L:1/8
Z:abc by Si Garbutt, from notation by Garry Shannon
K:D
de|fe d2 A2 FG A2 F2|G2 B2 e2 e2 A2 d2|GF G2 d2 FE F2 D2|GF GA BG A2 E2 (3AGF|
GF GA Bc d2 A2 d2|e2 A2 e2 f3 g af|g2 gf ed a2 A2 F2|EG Bd cA B4:|
de|fe df a2 ed ce a2|dB FB d2 cd cA F2| G2 Bc d2 F2 AF D2| E2 ef ge c2 e2 a2|
fe de f2 ed ef (3gfe| d2 AG (3FED B3 A Bc| d2 AB cd e3 f (3gfe|fe df ec d4:|

